X: 8719
T: Crucaharan Cross, The
R: polka
M: 2/4
K: Gmajor
B/A/|Gd Bd|G>F Ge|dB B/A/G/A/|BA AB/A/|
Gd Bd|G>F Ge|dB AB/A/|G3:|
|:d|e>d e/f/g|G>F Ge|dB B/A/G/A/|1 BA Ad|
ee/d/ e/f/g|G>F Ge|dB AB/A/|G3:|
2 BA AB/A/|Gd Bd|G>F Ge|dB AB/A/|G3||

